U-commodities/img/footer/logo.svg

<svg width="183" height="31" viewBox="0 0 183 31" fill="none" xmlns="http://www.w3.org/2000/svg">
<path d="M30.9264 14.2148C30.9333 14.301 30.9396 14.3874 30.9452 14.4739C30.9395 14.3873 30.9335 14.301 30.9264 14.2148Z" fill="#262262"/>
<path d="M30.9498 14.5488C30.9548 14.635 30.9596 14.7211 30.9633 14.8077C30.9596 14.722 30.9544 14.635 30.9498 14.5488Z" fill="#262262"/>
<path d="M30.856 13.5321L30.853 13.5098L30.856 13.5321Z" fill="#262262"/>
<path d="M30.9656 16.1387C30.9619 16.2287 30.9576 16.3186 30.9525 16.4083C30.9578 16.3185 30.9619 16.2287 30.9656 16.1387Z" fill="#262262"/>
<path d="M30.9757 15.7949C30.9741 15.8891 30.9711 15.9828 30.9677 16.0767C30.9711 15.9839 30.9741 15.8891 30.9757 15.7949Z" fill="#262262"/>
<path d="M30.9161 14.1025C30.9106 14.0405 30.906 13.9785 30.8996 13.9167C30.8996 13.9047 30.8968 13.8937 30.8957 13.8809C30.903 13.9534 30.9097 14.0274 30.9161 14.1025Z" fill="#262262"/>
<path d="M30.8018 13.1424C30.8018 13.1385 30.8018 13.1346 30.7999 13.1309L30.8028 13.1491C30.8026 13.1469 30.8023 13.1446 30.8018 13.1424Z" fill="#262262"/>
<path d="M30.9672 14.9062C30.9701 14.9866 30.9731 15.067 30.975 15.1476C30.9731 15.067 30.9701 14.9857 30.9672 14.9062Z" fill="#262262"/>
<path d="M2.22913 7.49128H4.54457V6.85251H9.63289V6.21421H14.7212V5.57544H19.8095V4.93759H24.8978V4.29883H4.79153C3.80057 5.24552 2.93899 6.31896 2.22913 7.49128Z" fill="#0E283D"/>
<path d="M9.63274 1.74429H14.7211V1.10598H19.8094V0.620999C17.7097 0.0136297 15.5055 -0.143389 13.3409 0.160225C11.1764 0.463839 9.10042 1.22124 7.2489 2.38283H9.63274V1.74429Z" fill="#0E283D"/>
<path d="M4.54444 11.96V11.3215H9.63276V10.6832H14.7211V10.0446H19.8094V9.40611H24.8977V8.76758H1.53607C1.04335 9.78692 0.66471 10.8576 0.407043 11.96H4.54444Z" fill="#0E283D"/>
<path d="M4.54435 15.7902H9.63267V15.1519H14.721V14.5136H19.8093V13.8749H24.8976V13.2363H0.165028C0.132206 13.4615 0.103056 13.6878 0.080104 13.9159C0.0266295 14.4422 -0.000105995 14.9707 3.15796e-07 15.4997C3.15796e-07 15.8118 0.0103287 16.1214 0.0284611 16.429H4.54435V15.7902Z" fill="#0E283D"/>
<path d="M30.9461 16.502C30.9415 16.5773 30.9367 16.6526 30.931 16.7277C30.9369 16.6526 30.9413 16.5773 30.9461 16.502Z" fill="#262262"/>
<path d="M30.8058 17.8223C30.8025 17.8444 30.799 17.8663 30.7958 17.8882C30.799 17.8665 30.8025 17.8444 30.8058 17.8223Z" fill="#262262"/>
<path d="M9.63224 28.5582H14.7206V27.9187H19.8089V27.2802H24.8972V26.6426H4.73236C5.78067 27.6548 6.96615 28.5145 8.25395 29.1965H9.6327L9.63224 28.5582Z" fill="#0E283D"/>
<path d="M30.8576 17.4531C30.8548 17.4748 30.8517 17.4965 30.8489 17.5184C30.8517 17.4967 30.8548 17.475 30.8576 17.4531Z" fill="#262262"/>
<path d="M4.54472 24.7275H9.63304V24.0892H14.7214V23.4509H19.8097V22.8124H24.898V22.1738H1.50903C2.05605 23.3174 2.74133 24.3894 3.5495 25.366H4.54472V24.7275Z" fill="#0E283D"/>
<path d="M4.54386 20.2603H9.63218V19.6217H14.7205V18.983H19.8088V18.3449H24.8971V17.707H0.156738C0.3118 18.797 0.583429 19.8672 0.966958 20.8993H4.54386V20.2603Z" fill="#0E283D"/>
<path d="M5.50443 3.6582C5.26068 3.86386 5.0235 4.07663 4.79291 4.29651H26.1894C25.9589 4.07632 25.7218 3.86355 25.4778 3.6582H5.50443Z" fill="#2882C5"/>
<path d="M9.63298 3.02112V2.38281H7.24914C6.63868 2.76731 6.0558 3.19396 5.50476 3.65966H25.4773C25.215 3.43824 24.9454 3.2254 24.6684 3.02112H9.63298Z" fill="#09518F"/>
<path d="M14.7208 2.38268V1.74414H9.63251V3.02098H24.6663C24.3624 2.79727 24.0503 2.5845 23.7299 2.38268H14.7208Z" fill="#7F2061"/>
<path d="M19.8089 1.74378V1.10547H14.7206V2.38231H23.7303C23.3689 2.15462 22.9977 1.94178 22.6167 1.74378H19.8089Z" fill="#D3652A"/>
<path d="M19.8091 1.10608V1.74438H22.6169C21.7202 1.27856 20.7797 0.902309 19.8091 0.621094V1.10608Z" fill="#FCB457"/>
<path d="M4.54396 8.12854V7.49023H2.22852C1.97833 7.90338 1.74736 8.32892 1.53558 8.76685H29.4432C29.339 8.55125 29.23 8.33848 29.1161 8.12854H4.54396Z" fill="#2882C5"/>
<path d="M9.63275 7.49033V6.85156H4.54443V8.12863H29.1166C28.9995 7.91258 28.8776 7.69981 28.7507 7.49033H9.63275Z" fill="#09518F"/>
<path d="M14.7208 6.8512V6.21289H9.63251V7.48996H28.7507C28.6194 7.27345 28.4833 7.06052 28.3424 6.8512H14.7208Z" fill="#7F2061"/>
<path d="M19.8089 6.21298V5.57422H14.7206V6.85129H28.3419C28.1956 6.63431 28.0442 6.42155 27.8877 6.21298H19.8089Z" fill="#D3652A"/>
<path d="M24.8975 5.57339V4.93555H19.8091V6.21216H27.8884C27.7251 5.99457 27.5563 5.78165 27.3818 5.57339H24.8975Z" fill="#FCB457"/>
<path d="M24.8977 4.29883V5.57544H27.3816C27.0079 5.12795 26.6095 4.70174 26.1881 4.29883H24.8977Z" fill="#E26460"/>
<path d="M4.54433 11.959H0.406926C0.374334 12.0976 0.34373 12.237 0.315116 12.3772C0.263703 12.6295 0.218334 12.8838 0.179009 13.1401C0.174189 13.1718 0.170286 13.2039 0.165466 13.2356H30.8143C30.8099 13.206 30.8065 13.1759 30.8019 13.1463L30.7991 13.1293C30.7718 12.9508 30.7404 12.7738 30.7073 12.5975H4.54433V11.959Z" fill="#2882C5"/>
<path d="M9.63275 11.9588V11.3203H4.54443V12.5974H30.7072C30.6932 12.5239 30.6799 12.4503 30.665 12.377C30.6363 12.237 30.6057 12.0976 30.5732 11.9588H9.63275Z" fill="#09518F"/>
<path d="M14.7208 11.3219V10.6836H9.63251V11.9607H30.5725C30.5223 11.7464 30.4676 11.5336 30.4083 11.3221L14.7208 11.3219Z" fill="#7F2061"/>
<path d="M19.8089 10.6835V10.0449H14.7206V11.3218H30.4081C30.3481 11.1075 30.2835 10.8947 30.2141 10.6832L19.8089 10.6835Z" fill="#D3652A"/>
<path d="M24.8975 10.0448V9.40625H19.8091V10.6833H30.2144C30.1442 10.4691 30.0694 10.2563 29.9901 10.045L24.8975 10.0448Z" fill="#FCB457"/>
<path d="M24.8977 8.76758V10.0446H29.9904C29.8265 9.60947 29.6443 9.18378 29.4437 8.76758H24.8977Z" fill="#E26460"/>
<path d="M4.54476 16.4277H0.0288696C0.0544233 16.8583 0.0973447 17.2839 0.157633 17.7046H30.822C30.831 17.6421 30.8402 17.5797 30.8484 17.5171C30.8512 17.4955 30.8542 17.4741 30.8569 17.4528C30.873 17.3243 30.8876 17.1953 30.9008 17.0658H4.54476V16.4277Z" fill="#2882C5"/>
<path d="M9.63275 15.7891H4.54443V17.0659H30.9011C30.9123 16.9533 30.9223 16.8401 30.9312 16.7264C30.9369 16.6514 30.9418 16.5761 30.9464 16.5008C30.948 16.4763 30.9496 16.4522 30.9509 16.4278H9.63275V15.7891Z" fill="#09518F"/>
<path d="M14.7208 15.1523H9.63251V16.4294H30.9507C30.9507 16.4225 30.9507 16.4161 30.9521 16.4094C30.9571 16.3196 30.9615 16.2298 30.9652 16.14C30.9652 16.1193 30.9668 16.0987 30.9675 16.078C30.9709 15.9841 30.9739 15.8905 30.9755 15.7964C30.9754 15.7945 30.9754 15.7926 30.9755 15.7907H14.7206L14.7208 15.1523Z" fill="#7F2061"/>
<path d="M19.8089 14.5137H14.7206V15.7903H30.9755C30.9771 15.6937 30.9791 15.597 30.9791 15.4997C30.9791 15.3836 30.9773 15.2677 30.9748 15.152H19.8089V14.5137Z" fill="#D3652A"/>
<path d="M24.8975 13.875H19.8091V15.1521H30.975C30.9749 15.1502 30.9749 15.1484 30.975 15.1466C30.9732 15.066 30.9702 14.9859 30.9672 14.9053C30.9658 14.873 30.9649 14.8406 30.9633 14.8082C30.9597 14.7217 30.9548 14.6356 30.9498 14.5496C30.9498 14.5376 30.9482 14.5255 30.9475 14.5138H24.8975V13.875Z" fill="#FCB457"/>
<path d="M24.8977 13.2363V14.5136H30.9475C30.9475 14.5001 30.9457 14.4868 30.945 14.4732C30.9393 14.3868 30.933 14.3005 30.9262 14.2143C30.9229 14.1767 30.9195 14.139 30.9161 14.1016C30.9096 14.0277 30.903 13.9538 30.8956 13.8801C30.8835 13.7635 30.8704 13.6472 30.8557 13.5313L30.8529 13.5106C30.841 13.4188 30.8279 13.327 30.8144 13.2366L24.8977 13.2363Z" fill="#E26460"/>
<path d="M15.4898 30.9894C16.83 30.9901 18.1647 30.8171 19.4605 30.4746H11.5183C12.8143 30.8171 14.1493 30.9902 15.4898 30.9894Z" fill="#2882C5"/>
<path d="M9.63244 29.1973H8.25415C9.2899 29.7458 10.3849 30.1742 11.518 30.4741H19.4611C20.1079 30.3029 20.7428 30.0896 21.3618 29.8358H9.63313L9.63244 29.1973Z" fill="#09518F"/>
<path d="M14.7208 28.5586H9.63251V29.8354H21.3612C21.8276 29.6443 22.2821 29.4315 22.7248 29.1969H14.7208V28.5586Z" fill="#7F2061"/>
<path d="M19.8089 27.9199H14.7206V29.1968H22.7252C23.0998 28.9978 23.4653 28.7851 23.8217 28.5585H19.8089V27.9199Z" fill="#D3652A"/>
<path d="M19.8091 27.2812V28.5583H23.8219C24.1916 28.3219 24.5501 28.0704 24.8975 27.8036V27.2812H19.8091Z" fill="#FCB457"/>
<path d="M24.8977 27.283V27.8062C25.3694 27.4449 25.8201 27.0571 26.2477 26.6445H24.8977V27.283Z" fill="#E26460"/>
<path d="M4.54413 20.8984H0.967224C1.12912 21.3335 1.30952 21.759 1.50844 22.1751H29.4707C29.5712 21.9648 29.6672 21.752 29.7587 21.5367H4.54413V20.8984Z" fill="#2882C5"/>
<path d="M9.63275 20.2598H4.54443V21.5366H29.759C29.8483 21.3264 29.9321 21.1134 30.0115 20.8983H9.63275V20.2598Z" fill="#09518F"/>
<path d="M14.7208 19.6211H9.63251V20.8982H30.0131C30.0913 20.6875 30.165 20.4746 30.2341 20.2596H14.7208V19.6211Z" fill="#7F2061"/>
<path d="M19.8089 18.9824H14.7206V20.2597H30.2327C30.3008 20.0487 30.3645 19.8359 30.4237 19.6212H19.8089V18.9824Z" fill="#D3652A"/>
<path d="M24.8975 18.3438H19.8091V19.6206H30.4239C30.4822 19.4094 30.5369 19.1967 30.5862 18.9818H24.8975V18.3438Z" fill="#FCB457"/>
<path d="M24.8977 18.3434V18.9815H30.5871C30.6698 18.6216 30.7397 18.2569 30.7969 17.8876C30.8001 17.866 30.8036 17.8444 30.8068 17.8226C30.8125 17.7836 30.8176 17.7443 30.8231 17.7051H24.8977V18.3434Z" fill="#E26460"/>
<path d="M4.54404 25.3672H3.54883C3.91925 25.8146 4.31442 26.241 4.73248 26.6443H26.2465C26.4607 26.4375 26.6688 26.2248 26.8708 26.006H4.54404V25.3672Z" fill="#2882C5"/>
<path d="M9.63275 24.7285H4.54443V26.0058H26.8712C27.063 25.7979 27.2495 25.5849 27.4305 25.3671H9.63275V24.7285Z" fill="#09518F"/>
<path d="M14.7208 24.0898H9.63251V25.3667H27.4303C27.6024 25.1586 27.7692 24.9457 27.9306 24.7281H14.7208V24.0898Z" fill="#7F2061"/>
<path d="M19.8089 23.4512H14.7206V24.7278H27.9304C28.0854 24.5191 28.2352 24.3063 28.3798 24.0895H19.8089V23.4512Z" fill="#D3652A"/>
<path d="M24.8975 22.8125H19.8091V24.0893H28.38C28.5199 23.88 28.6546 23.6672 28.7842 23.451H24.8975V22.8125Z" fill="#FCB457"/>
<path d="M24.8977 22.8124V23.4509H28.7845C29.0324 23.0378 29.2612 22.6121 29.471 22.1738H24.8977V22.8124Z" fill="#E26460"/>
<path fill-rule="evenodd" clip-rule="evenodd" d="M64.9064 12.0282V10.1789C64.9064 7.06567 63.4054 5.00977 60.1636 5.00977C56.9497 5.00977 55.4507 7.06567 55.4507 10.1789V20.8098C55.4507 23.923 56.9517 25.9789 60.1636 25.9789C63.4074 25.9789 64.9064 23.923 64.9064 20.8098V18.2545H62.6852V20.9271C62.6852 22.7777 61.9344 23.8936 60.2235 23.8936C58.544 23.8936 57.7618 22.7764 57.7618 20.9271V10.0603C57.7618 8.20968 58.5427 7.09373 60.2235 7.09373C61.9344 7.09373 62.6852 8.21096 62.6852 10.0603V12.0282H64.9064ZM41.3111 20.9287C41.3111 22.778 42.062 23.8953 43.7728 23.8953C45.4537 23.8953 46.2046 22.7793 46.2046 20.9287V5.21546H48.3958V20.8114C48.3958 23.9246 46.9248 26.0098 43.6829 26.0098C40.471 26.0124 39 23.9246 39 20.8114V5.21546H41.3111V20.9287ZM52.1777 22.9258V25.7743H49.9266V22.9258H52.1777ZM67.4581 10.1789C67.4581 7.03633 69.0491 5.00977 72.261 5.00977C75.5035 5.00977 77.0944 7.03633 77.0944 10.1789V20.811C77.0944 23.9242 75.5035 25.9801 72.261 25.9801C69.0491 25.9801 67.4581 23.9242 67.4581 20.811V10.1789ZM69.7699 20.9284C69.7699 22.8083 70.5801 23.8949 72.261 23.8949C73.9718 23.8949 74.7526 22.8108 74.7526 20.9284V10.0615C74.7526 8.21223 73.9705 7.095 72.261 7.095C70.5801 7.095 69.7699 8.21096 69.7699 10.0615V20.9284ZM86.0095 25.7446H88.2607L91.5925 9.24057V25.7739H93.813V5.21484H90.5438L87.212 21.6328L83.7577 5.21484H80.4858V25.7739H82.5271V9.38532L86.0095 25.7446ZM105.161 25.7446H102.91L99.4278 9.38532V25.7739H97.3865V5.21484H100.656L104.111 21.6328L107.443 5.21484H110.715V25.7739H108.493V9.24057L105.161 25.7446ZM118.94 5.00977C115.728 5.00977 114.137 7.03633 114.137 10.1789V20.811C114.137 23.9242 115.728 25.9801 118.94 25.9801C122.182 25.9801 123.773 23.9242 123.773 20.811V10.1789C123.773 7.03633 122.182 5.00977 118.94 5.00977ZM118.94 23.8949C117.259 23.8949 116.449 22.8083 116.449 20.9284V10.0615C116.449 8.21096 117.259 7.095 118.94 7.095C120.65 7.095 121.432 8.21223 121.432 10.0615V20.9284C121.432 22.8108 120.651 23.8949 118.94 23.8949ZM132.119 5.21484C135.39 5.21484 136.891 7.15342 136.891 10.3253V20.6928C136.891 23.836 135.392 25.7739 132.119 25.7739H127.195V5.21484H132.119ZM132.089 23.6887C133.769 23.6887 134.58 22.6607 134.58 20.7814V10.2079C134.58 8.32804 133.769 7.30008 132.059 7.30008H129.537V23.6887H132.089ZM142.625 25.7739V5.21484H140.283V25.7739H142.625ZM148.691 25.7739V7.30008H144.818V5.21484H154.902V7.30008H151.03V25.7739H148.691ZM159.465 25.7739V5.21484H157.124V25.7739H159.465ZM170.542 14.3198V16.3757H165.409V23.6887H171.713V25.7739H163.068V5.21484H171.713V7.30008H165.409V14.3198H170.542ZM182.97 10.7077V10.1498C182.97 7.03658 181.469 5.01 178.288 5.01319C175.134 5.01319 173.635 6.9811 173.635 10.153C173.635 13.2144 175.601 14.7793 177.454 16.253C179.102 17.5645 180.659 18.8037 180.659 20.9611C180.659 22.8143 179.877 23.8983 178.198 23.8983C176.518 23.8983 175.736 22.8104 175.736 20.9611V19.6692H173.545V20.8438C173.545 23.957 175.046 25.9836 178.258 25.9836C181.469 25.9836 183 23.957 183 20.8438C183 17.7845 181.031 16.2189 179.173 14.7423C177.515 13.4245 175.946 12.1776 175.946 10.0031C175.946 8.17931 176.667 7.09524 178.347 7.09524C180.028 7.09524 180.749 8.18314 180.749 10.0324V10.7077H182.97Z" fill="#020000"/>
</svg>

<svg width="183" height="31" fill="none" xmlns="http://www.w3.org/2000/svg"><path d="M30.926 14.215zm.024.334c.005.086.01.172.013.259-.003-.086-.009-.173-.013-.26zm-.094-1.017l-.003-.022.003.022zm.11 2.607zm.01-.344zm-.06-1.693l-.016-.185c0-.012-.003-.023-.004-.036l.02.221zm-.114-.96c0-.003 0-.007-.002-.011l.003.018-.001-.007zm.165 1.764l.008.242-.008-.242z" fill="#262262"/><path d="M2.23 7.491h2.315v-.638h5.088v-.639h5.088v-.639h5.088v-.637h5.089v-.64H4.792a15.564 15.564 0 00-2.563 3.193zm7.403-5.747h5.088v-.638h5.088V.621A15.52 15.52 0 007.25 2.383h2.384v-.639zM4.544 11.96v-.639h5.089v-.638h5.088v-.638h5.088v-.639h5.089v-.638H1.536A15.378 15.378 0 00.407 11.96h4.137zm0 3.83h5.089v-.638h5.088v-.638h5.088v-.64h5.089v-.638H.165a15.401 15.401 0 00-.137 3.193h4.516v-.639z" fill="#0E283D"/><path d="M30.946 16.502l-.015.226c.006-.075.01-.15.015-.226zm-.14 1.32l-.01.066.01-.066z" fill="#262262"/><path d="M9.632 28.558h5.089v-.64h5.088v-.638h5.088v-.637H4.732a15.54 15.54 0 003.522 2.553h1.379v-.638z" fill="#0E283D"/><path d="M30.858 17.453l-.01.065.01-.065z" fill="#262262"/><path d="M4.545 24.727h5.088v-.638h5.088v-.638h5.089v-.639h5.088v-.638H1.509a15.493 15.493 0 002.04 3.192h.996v-.639zm-.001-4.467h5.088v-.638h5.088v-.639h5.089v-.638h5.088v-.638H.157c.155 1.09.426 2.16.81 3.192h3.577v-.639z" fill="#0E283D"/><path d="M5.504 3.658c-.243.206-.48.419-.711.639h21.396a15.41 15.41 0 00-.711-.639H5.504z" fill="#2882C5"/><path d="M9.633 3.021v-.638H7.249A15.5 15.5 0 005.505 3.66h19.972a15.695 15.695 0 00-.809-.639H9.633z" fill="#09518F"/><path d="M14.72 2.383v-.639H9.634v1.277h15.033a15.64 15.64 0 00-.936-.638h-9.01z" fill="#7F2061"/><path d="M19.809 1.744v-.639H14.72v1.277h9.01a15.88 15.88 0 00-1.114-.638h-2.808z" fill="#D3652A"/><path d="M19.81 1.106v.638h2.807A15.368 15.368 0 0019.809.621v.485z" fill="#FCB457"/><path d="M4.544 8.129V7.49H2.229c-.25.413-.482.839-.693 1.277h27.907a15.294 15.294 0 00-.327-.638H4.544z" fill="#2882C5"/><path d="M9.633 7.49v-.638H4.544v1.277h24.573a15.333 15.333 0 00-.366-.639H9.633z" fill="#09518F"/><path d="M14.72 6.851v-.638H9.634V7.49H28.75c-.132-.217-.268-.43-.409-.639h-13.62z" fill="#7F2061"/><path d="M19.809 6.213v-.639H14.72v1.277h13.62c-.145-.217-.297-.43-.453-.638h-8.08z" fill="#D3652A"/><path d="M24.898 5.573v-.637h-5.089v1.276h8.08c-.164-.217-.333-.43-.507-.639h-2.485z" fill="#FCB457"/><path d="M24.898 4.299v1.276h2.484A15.605 15.605 0 0026.188 4.3h-1.29z" fill="#E26460"/><path d="M4.544 11.959H.407a14.452 14.452 0 00-.228 1.181l-.014.096h30.65l-.013-.09-.003-.017a15.943 15.943 0 00-.092-.531H4.544v-.639z" fill="#2882C5"/><path d="M9.633 11.959v-.639H4.544v1.277h26.163c-.014-.073-.027-.147-.042-.22-.029-.14-.06-.28-.092-.418H9.633z" fill="#09518F"/><path d="M14.72 11.322v-.638H9.634v1.277h20.94a15.24 15.24 0 00-.165-.639H14.721z" fill="#7F2061"/><path d="M19.809 10.684v-.64H14.72v1.278h15.687a15.14 15.14 0 00-.194-.639H19.81z" fill="#D3652A"/><path d="M24.898 10.045v-.639h-5.089v1.277h10.405c-.07-.214-.145-.427-.224-.638h-5.092z" fill="#FCB457"/><path d="M24.898 8.768v1.277h5.092a15.359 15.359 0 00-.546-1.277h-4.546z" fill="#E26460"/><path d="M4.545 16.428H.029c.025.43.068.856.129 1.277h30.664l.026-.188.009-.064c.016-.129.03-.258.044-.387H4.545v-.638z" fill="#2882C5"/><path d="M9.633 15.79H4.544v1.276h26.357a16.215 16.215 0 00.045-.565l.005-.073H9.633v-.639z" fill="#09518F"/><path d="M14.72 15.152H9.634v1.277H30.95l.001-.02c.005-.09.01-.18.013-.269l.003-.062a14.657 14.657 0 00.008-.287H14.72v-.639z" fill="#7F2061"/><path d="M19.809 14.514H14.72v1.276h16.255c.001-.096.003-.193.003-.29 0-.116-.002-.232-.004-.348H19.809v-.638z" fill="#D3652A"/><path d="M24.898 13.875h-5.089v1.277h11.166a.05.05 0 010-.005l-.008-.242-.004-.097a15.695 15.695 0 00-.013-.258l-.002-.036h-6.05v-.639z" fill="#FCB457"/><path d="M24.898 13.236v1.278h6.05c0-.014-.002-.027-.003-.04a20.206 20.206 0 00-.05-.594 15.43 15.43 0 00-.04-.349l-.002-.02a14.343 14.343 0 00-.039-.274h-5.916z" fill="#E26460"/><path d="M15.49 30.99c1.34 0 2.675-.173 3.97-.515h-7.942c1.296.342 2.631.515 3.972.514z" fill="#2882C5"/><path d="M9.632 29.197H8.254c1.036.549 2.13.977 3.264 1.277h7.943a15.392 15.392 0 001.9-.638H9.634v-.639z" fill="#09518F"/><path d="M14.72 28.559H9.634v1.276H21.36c.467-.19.921-.404 1.364-.638H14.72v-.638z" fill="#7F2061"/><path d="M19.809 27.92H14.72v1.277h8.004c.375-.2.74-.412 1.097-.639h-4.013v-.638z" fill="#D3652A"/><path d="M19.81 27.281v1.277h4.012c.37-.236.728-.488 1.076-.754v-.523h-5.089z" fill="#FCB457"/><path d="M24.898 27.283v.523a15.69 15.69 0 001.35-1.162h-1.35v.639z" fill="#E26460"/><path d="M4.544 20.898H.967c.162.436.343.861.541 1.277h27.963c.1-.21.196-.423.288-.638H4.544v-.639z" fill="#2882C5"/><path d="M9.633 20.26H4.544v1.277H29.76c.09-.21.173-.424.253-.639H9.632v-.638z" fill="#09518F"/><path d="M14.72 19.621H9.634v1.277h20.38c.078-.21.152-.423.221-.638H14.721v-.639z" fill="#7F2061"/><path d="M19.809 18.982H14.72v1.278h15.512c.068-.211.131-.424.19-.639H19.81v-.639z" fill="#D3652A"/><path d="M24.898 18.344h-5.089v1.277h10.615c.058-.212.113-.424.162-.64h-5.688v-.637z" fill="#FCB457"/><path d="M24.898 18.343v.639h5.69c.082-.36.152-.725.209-1.094l.01-.065.016-.118h-5.925v.638z" fill="#E26460"/><path d="M4.544 25.367h-.995c.37.448.765.874 1.183 1.277h21.515c.214-.206.422-.42.624-.638H4.544v-.639z" fill="#2882C5"/><path d="M9.633 24.729H4.544v1.277h22.327c.192-.208.379-.421.56-.639H9.633v-.639z" fill="#09518F"/><path d="M14.72 24.09H9.634v1.277H27.43c.172-.208.34-.421.5-.639H14.72v-.638z" fill="#7F2061"/><path d="M19.809 23.451H14.72v1.277h13.21c.154-.209.304-.422.449-.639h-8.571v-.638z" fill="#D3652A"/><path d="M24.898 22.813h-5.089v1.276h8.571c.14-.209.275-.422.404-.638h-3.886v-.639z" fill="#FCB457"/><path d="M24.898 22.812v.639h3.887c.247-.413.476-.839.686-1.277h-4.573v.638z" fill="#E26460"/><path fill-rule="evenodd" clip-rule="evenodd" d="M64.906 12.028v-1.85c0-3.112-1.5-5.168-4.742-5.168-3.214 0-4.713 2.056-4.713 5.169v10.63c0 3.114 1.5 5.17 4.713 5.17 3.243 0 4.742-2.056 4.742-5.17v-2.555h-2.22v2.673c0 1.85-.752 2.967-2.462 2.967-1.68 0-2.462-1.118-2.462-2.967V10.06c0-1.85.78-2.966 2.462-2.966 1.71 0 2.461 1.117 2.461 2.966v1.968h2.221zm-23.595 8.9c0 1.85.751 2.967 2.462 2.967 1.68 0 2.432-1.116 2.432-2.966V5.215h2.19v15.596c0 3.114-1.47 5.199-4.712 5.199-3.213.002-4.683-2.085-4.683-5.2V5.215h2.311V20.93zm10.867 1.998v2.848h-2.251v-2.848h2.25zm15.28-12.747c0-3.143 1.591-5.17 4.803-5.17 3.243 0 4.833 2.027 4.833 5.17V20.81c0 3.113-1.59 5.17-4.833 5.17-3.212 0-4.803-2.057-4.803-5.17V10.179zm2.312 10.75c0 1.88.81 2.966 2.491 2.966 1.71 0 2.492-1.084 2.492-2.967V10.061c0-1.849-.782-2.966-2.492-2.966-1.68 0-2.491 1.116-2.491 2.967v10.866zm16.24 4.816h2.25L91.593 9.24v16.533h2.221V5.214h-3.27l-3.331 16.419-3.454-16.418h-3.272v20.559h2.041V9.385l3.483 16.36zm19.151 0h-2.251l-3.482-16.36v16.389h-2.041V5.214h3.269l3.455 16.419 3.332-16.418h3.272v20.559h-2.222V9.24l-3.332 16.504zM118.94 5.01c-3.212 0-4.803 2.026-4.803 5.169V20.81c0 3.113 1.591 5.17 4.803 5.17 3.242 0 4.833-2.057 4.833-5.17V10.179c0-3.143-1.591-5.17-4.833-5.17zm0 18.885c-1.681 0-2.491-1.087-2.491-2.967V10.061c0-1.85.81-2.966 2.491-2.966 1.71 0 2.492 1.117 2.492 2.967v10.866c0 1.883-.781 2.967-2.492 2.967zm13.179-18.68c3.271 0 4.772 1.938 4.772 5.11v10.368c0 3.143-1.499 5.08-4.772 5.08h-4.924V5.216h4.924zm-.03 18.474c1.68 0 2.491-1.028 2.491-2.908V10.208c0-1.88-.811-2.908-2.521-2.908h-2.522v16.39h2.552zm10.536 2.085V5.214h-2.342v20.56h2.342zm6.066 0V7.3h-3.873V5.215h10.084V7.3h-3.872v18.474h-2.339zm10.774 0V5.214h-2.341v20.56h2.341zm11.077-11.454v2.056h-5.133v7.313h6.304v2.085h-8.645V5.214h8.645V7.3h-6.304v7.02h5.133zm12.428-3.612v-.558c0-3.113-1.501-5.14-4.682-5.137-3.154 0-4.653 1.968-4.653 5.14 0 3.061 1.966 4.626 3.819 6.1 1.648 1.311 3.205 2.55 3.205 4.708 0 1.853-.782 2.937-2.461 2.937-1.68 0-2.462-1.088-2.462-2.937V19.67h-2.191v1.175c0 3.113 1.501 5.14 4.713 5.14 3.211 0 4.742-2.027 4.742-5.14 0-3.06-1.969-4.625-3.827-6.102-1.658-1.318-3.227-2.564-3.227-4.739 0-1.824.721-2.908 2.401-2.908 1.681 0 2.402 1.088 2.402 2.937v.676h2.221z" fill="#020000"/></svg>
